**kern	**kern	**dynam
*part1	*part1	*part1
*staff2	*staff1	*
*I"Piano	*	*
*clefF4	*clefG2	*
*k[b-e-a-]	*k[b-e-a-]	*
=1	=1	=1
8A-L	8e-L 8a- 8cc	.
8D-X	8f 8a- 8dd-X	.
8E-J	8e-J 8g 8b-	.
=	=	=
4.AA-	4.e- 4.a- 4.cc	.
=	=	=
8AA-L	8e-L 8a- 8cc	.
8FF	8a- 8cc 8ff	.
8BB-J	8fJ 8b- 8ddn	.
=	=	=
4.EE-	4.g 4.b- 4.ee-	.
=	=	=
8E-L	8e-L 8g 8b-	<
8C	8g 8cc 8ee-	.
8FJ	8fJ 8an 8cc	.
=	=	=
4.D	4.f 4.b- 4.dd 4.ff	[
=	=	=
8BB-L	8gL 8b- 8dd	p >
8GG	8b- 8dd 8gg	.
8CJ	8gJ 8cc 8een	.
=	=	=
*-	*-	*-
!!!system-decoration: {(s1,s2)}
